tools/download-figma-icons/icons/outlined-large/cold-water.svg

<svg width="64" height="65" viewBox="0 0 64 65" fill="none" xmlns="http://www.w3.org/2000/svg">
<path d="M24.5 16.0259C23.9423 16.0269 23.3929 16.161 22.8973 16.417C22.4017 16.673 21.9741 17.0436 21.65 17.4981C16.18 25.21 7 39.2215 7 46.4727C7 51.1211 8.84374 55.5791 12.1256 58.8661C15.4075 62.153 19.8587 63.9996 24.5 63.9996C29.1413 63.9996 33.5925 62.153 36.8744 58.8661C40.1563 55.5791 42 51.1211 42 46.4727C42 39.2215 32.82 25.21 27.34 17.4981C27.0186 17.0432 26.593 16.6721 26.0989 16.4159C25.6047 16.1598 25.0564 16.026 24.5 16.0259ZM24.5 61.0951C20.6419 61.0792 16.9479 59.5303 14.2292 56.7887C11.5104 54.047 9.98937 50.3367 10 46.4727C10 41.8556 15.27 31.6699 24.1 19.2408C24.1453 19.1767 24.2052 19.1245 24.2748 19.0884C24.3444 19.0523 24.4216 19.0335 24.5 19.0335C24.5784 19.0335 24.6556 19.0523 24.7252 19.0884C24.7948 19.1245 24.8547 19.1767 24.9 19.2408C33.73 31.6699 39 41.8556 39 46.4727C39.0106 50.3367 37.4896 54.047 34.7708 56.7887C32.0521 59.5303 28.3581 61.0792 24.5 61.0951Z" fill="black"/>
<path d="M49.09 1.08332C48.8535 0.748502 48.5403 0.47538 48.1767 0.28688C47.813 0.0983791 47.4095 0 47 0C46.5905 0 46.187 0.0983791 45.8233 0.28688C45.4597 0.47538 45.1465 0.748502 44.91 1.08332C42 5.25974 37 12.8814 37 16.9377C37 19.5939 38.0536 22.1414 39.9289 24.0196C41.8043 25.8979 44.3478 26.9531 47 26.9531C49.6522 26.9531 52.1957 25.8979 54.0711 24.0196C55.9464 22.1414 57 19.5939 57 16.9377C57 12.8814 52 5.25974 49.09 1.08332ZM47 24.0386C45.132 24.0254 43.3455 23.2701 42.033 21.9387C40.7206 20.6073 39.9894 18.8086 40 16.9377C40 14.7143 42.67 9.52629 47 3.33678C51.33 9.52629 54 14.7143 54 16.9377C54.0106 18.8086 53.2794 20.6073 51.967 21.9387C50.6545 23.2701 48.868 24.0254 47 24.0386Z" fill="black"/>
<path d="M23 39.7025V44.0692L19.25 41.9059C18.9052 41.7067 18.4955 41.6528 18.1111 41.7561C17.7266 41.8594 17.3989 42.1114 17.2 42.4567C17.0011 42.802 16.9472 43.2124 17.0504 43.5974C17.1535 43.9824 17.4052 44.3107 17.75 44.5099L21.5 46.6732L17.75 48.8466C17.4635 49.0117 17.2396 49.267 17.1129 49.5727C16.9862 49.8784 16.9639 50.2175 17.0494 50.5373C17.1349 50.857 17.3234 51.1395 17.5858 51.3409C17.8481 51.5423 18.1695 51.6512 18.5 51.6509C18.7643 51.6496 19.0234 51.5769 19.25 51.4405L23 49.2472V53.5838C23 53.9823 23.158 54.3644 23.4393 54.6461C23.7206 54.9279 24.1021 55.0861 24.5 55.0861C24.8978 55.0861 25.2793 54.9279 25.5606 54.6461C25.8419 54.3644 26 53.9823 26 53.5838V49.2472L29.75 51.4105C29.9765 51.5469 30.2356 51.6195 30.5 51.6208C30.8305 51.6212 31.1518 51.5122 31.4142 51.3108C31.6765 51.1095 31.865 50.827 31.9506 50.5072C32.0361 50.1875 32.0137 49.8484 31.8871 49.5427C31.7604 49.2369 31.5364 48.9817 31.25 48.8165L27.5 46.6432L31.25 44.4798C31.4207 44.3812 31.5703 44.2498 31.6904 44.0933C31.8104 43.9367 31.8985 43.758 31.9495 43.5674C32.0006 43.3767 32.0137 43.1778 31.988 42.9821C31.9624 42.7864 31.8985 42.5977 31.8 42.4267C31.7015 42.2557 31.5703 42.1058 31.414 41.9856C31.2577 41.8654 31.0792 41.7772 30.8889 41.726C30.6985 41.6749 30.5 41.6618 30.3045 41.6875C30.1091 41.7132 29.9207 41.7772 29.75 41.8758L26 44.0692V39.7025C26 39.3041 25.8419 38.9219 25.5606 38.6402C25.2793 38.3585 24.8978 38.2002 24.5 38.2002C24.1021 38.2002 23.7206 38.3585 23.4393 38.6402C23.158 38.9219 23 39.3041 23 39.7025Z" fill="black"/>
</svg>

<svg width="64" height="65" viewBox="0 0 64 65" fill="none" xmlns="http://www.w3.org/2000/svg"><path d="M24.5 16.026a3.506 3.506 0 0 0-2.85 1.472C16.18 25.21 7 39.221 7 46.473a17.54 17.54 0 0 0 5.126 12.393A17.487 17.487 0 0 0 24.5 64c4.641 0 9.093-1.847 12.374-5.134A17.54 17.54 0 0 0 42 46.473c0-7.252-9.18-21.263-14.66-28.975a3.483 3.483 0 0 0-2.84-1.472Zm0 45.07a14.549 14.549 0 0 1-10.27-4.307A14.594 14.594 0 0 1 10 46.473c0-4.617 5.27-14.803 14.1-27.232a.49.49 0 0 1 .8 0C33.73 31.67 39 41.856 39 46.473a14.594 14.594 0 0 1-4.23 10.316 14.549 14.549 0 0 1-10.27 4.306ZM49.09 1.083a2.562 2.562 0 0 0-3.267-.796 2.562 2.562 0 0 0-.913.796C42 5.26 37 12.881 37 16.938c0 2.656 1.054 5.203 2.929 7.082a9.992 9.992 0 0 0 14.142 0A10.023 10.023 0 0 0 57 16.938c0-4.057-5-11.678-7.91-15.855ZM47 24.04a7.045 7.045 0 0 1-4.967-2.1A7.067 7.067 0 0 1 40 16.938c0-2.224 2.67-7.412 7-13.601 4.33 6.19 7 11.377 7 13.6a7.068 7.068 0 0 1-2.033 5.002 7.045 7.045 0 0 1-4.967 2.1Z" fill="currentColor"/><path d="M23 39.703v4.366l-3.75-2.163a1.499 1.499 0 0 0-2.05.55 1.505 1.505 0 0 0 .55 2.054l3.75 2.163-3.75 2.174a1.501 1.501 0 0 0-.164 2.494 1.47 1.47 0 0 0 1.664.1L23 49.246v4.337a1.503 1.503 0 0 0 1.5 1.502 1.498 1.498 0 0 0 1.5-1.502v-4.337l3.75 2.163c.227.137.486.21.75.21a1.498 1.498 0 0 0 1.45-1.113 1.505 1.505 0 0 0-.7-1.69l-3.75-2.174 3.75-2.163a1.503 1.503 0 0 0-1.5-2.604L26 44.069v-4.367a1.504 1.504 0 0 0-1.5-1.502 1.499 1.499 0 0 0-1.5 1.502Z" fill="currentColor"/></svg>
